svg/Meteorology/drawings/thunder.svg

<?xml version="1.0" encoding="UTF-8" standalone="no"?>
<!-- Created with Inkscape (http://www.inkscape.org/) -->
<svg
   xmlns:dc="http://purl.org/dc/elements/1.1/"
   xmlns:cc="http://web.resource.org/cc/"
   xmlns:rdf="http://www.w3.org/1999/02/22-rdf-syntax-ns#"
   xmlns:svg="http://www.w3.org/2000/svg"
   xmlns="http://www.w3.org/2000/svg"
   xmlns:sodipodi="http://sodipodi.sourceforge.net/DTD/sodipodi-0.dtd"
   xmlns:inkscape="http://www.inkscape.org/namespaces/inkscape"
   width="744.09448819"
   height="1052.3622047"
   id="svg2"
   sodipodi:version="0.32"
   inkscape:version="0.44.1"
   sodipodi:docbase="F:\Qgis N_arrows\WEATHER"
   sodipodi:docname="rainy.svg"
   inkscape:export-filename="F:\Qgis N_arrows\WEATHER\cloudy.png"
   inkscape:export-xdpi="300"
   inkscape:export-ydpi="300">
  <defs
     id="defs4" />
  <sodipodi:namedview
     id="base"
     pagecolor="#ffffff"
     bordercolor="#666666"
     borderopacity="1.0"
     inkscape:pageopacity="0.0"
     inkscape:pageshadow="2"
     inkscape:zoom="0.98994949"
     inkscape:cx="375.75893"
     inkscape:cy="503.32524"
     inkscape:document-units="px"
     inkscape:current-layer="layer1"
     showgrid="true"
     inkscape:window-width="1280"
     inkscape:window-height="744"
     inkscape:window-x="-4"
     inkscape:window-y="-4" />
  <metadata
     id="metadata7">
    <rdf:RDF>
      <cc:Work
         rdf:about="">
        <dc:format>image/svg+xml</dc:format>
        <dc:type
           rdf:resource="http://purl.org/dc/dcmitype/StillImage" />
      </cc:Work>
    </rdf:RDF>
  </metadata>
  <g
     inkscape:label="Livello 1"
     inkscape:groupmode="layer"
     id="layer1">
    <g
       id="g2994"
       transform="translate(266.6803,-123.2386)"
       inkscape:export-filename="F:\Qgis N_arrows\WEATHER\rainy.png"
       inkscape:export-xdpi="300"
       inkscape:export-ydpi="300">
      <path
         d="M -109.49717,677.90857 C -109.48759,676.54352 -109.48933,675.17836 -109.48691,673.81331 C -109.59238,671.65258 -109.41294,669.53199 -109.27775,667.39494 C -109.25278,665.19129 -108.55035,663.33033 -108.03652,661.33946 C -107.29514,658.96748 -106.33475,656.7645 -105.42283,654.52844 C -104.23641,653.05315 -103.38748,651.19735 -102.42921,649.49278 C -102.10678,647.40229 -101.46362,645.47304 -100.93393,643.49479 C -100.40773,641.45585 -99.522548,639.77355 -98.675008,638.01852 C -97.501308,635.93289 -96.420328,633.73817 -95.290038,631.60094 C -91.796208,625.65747 -88.011138,620.08814 -83.823188,615.14894 C -80.240158,611.29286 -76.241568,608.38793 -72.237088,605.56326 C -68.204368,603.21993 -71.441058,605.19071 -68.877928,602.91318 C -67.182858,600.96068 -65.348358,599.28755 -63.542398,597.56646 C -61.320778,595.07962 -58.865368,593.94082 -56.193978,593.14035 C -53.155938,592.68608 -50.186398,593.77777 -47.259598,594.77912 C -44.942008,596.27232 -42.709838,596.14999 -40.280498,596.03835 C -37.653828,595.25178 -35.148858,595.48514 -32.547838,596.13221 C -29.587758,598.24224 -27.679498,596.78225 -24.957448,594.83133 C -21.700328,591.28224 -17.839388,589.14337 -13.910568,587.52488 C -12.061108,587.96743 -10.051488,588.04732 -8.311908,588.19926 C -11.149728,592.02802 -9.086788,585.17705 -8.773848,583.73958 C -7.303748,578.63429 -4.336508,575.38789 -1.451968,572.0069 C 1.352922,568.83633 4.535422,566.69782 7.844602,564.91135 C 9.864352,563.77705 11.689772,562.0179 15.174152,559.38408 C 18.108932,557.37057 21.262532,556.71087 24.451102,556.19123 C 27.060052,555.58829 29.262842,553.41809 31.541352,551.63144 C 34.252852,549.76927 37.250322,549.15692 40.174412,548.37235 C 42.714682,547.25669 44.521412,548.75741 46.690682,550.46624 C 48.560282,552.22861 50.340222,554.1643 52.174252,555.98325 C 54.430162,557.0583 56.848092,556.09446 59.167812,555.69987 C 63.242622,554.61195 66.161872,556.33583 69.476092,559.3927 C 71.349592,562.14514 73.112492,565.02232 75.035292,567.70555 C 76.750242,569.78074 78.504922,571.78624 80.243532,573.82015 C 82.102702,575.83044 83.661562,578.25979 85.242692,580.68156 C 86.185562,582.61002 87.513782,582.97049 88.850172,583.87435 C 90.415272,584.27149 92.007882,584.21583 93.590022,584.24873 C 95.548982,583.863 97.180552,584.97047 98.966722,585.86298 C 100.9529,587.04068 102.68379,588.80888 104.43537,590.5534 C 106.14803,592.45831 107.40058,595.01017 108.75809,597.4017 C 110.58004,600.63851 112.53696,603.6833 114.27078,607.01166 C 115.41497,609.71267 116.43292,612.51804 117.51425,615.27423 C 118.79744,618.40171 120.15397,621.46028 121.40194,624.61453 C 122.33095,627.31992 123.63823,629.6196 124.97645,631.9174 C 126.38987,634.29946 128.02932,636.36385 129.61316,638.50205 C 131.48187,641.60877 132.62898,645.44535 133.93808,649.06152 C 135.2384,652.05999 136.25326,655.27574 137.36578,658.41809 C 138.57428,662.29183 140.0749,665.95352 141.50918,669.65923 C 142.55155,672.27167 143.56891,674.90396 144.56935,677.54445 C 145.12875,679.86314 145.34469,682.33377 145.63724,684.744 C 146.63916,686.92196 146.52827,689.35781 146.7323,691.62283 C 145.0237,694.31601 143.4968,694.21991 141.34428,694.55228 C 139.82416,694.5762 138.30382,694.54433 136.7837,694.5263 C 135.26388,694.50973 133.74401,694.50912 132.22419,694.50566 C 130.70991,694.50414 129.19564,694.50475 127.68141,694.50475 C 126.16748,694.50493 124.65355,694.50493 123.13966,694.50499 C 121.62568,694.50505 120.11171,694.50505 118.59774,694.50505 C 117.08372,694.50505 115.56974,694.50505 114.05577,694.50505 C 112.54175,694.50505 111.02778,694.50505 109.5138,694.50505 C 107.99983,694.50505 106.48581,694.50505 104.97184,694.50505 C 103.44074,694.36731 101.94274,694.82795 100.43987,695.17701 C 98.904922,695.31051 97.408582,695.68057 95.900542,696.08931 C 94.034842,696.57958 92.133872,696.55195 90.245922,696.6401 C 88.367252,696.68484 86.488242,696.6778 84.609402,696.67944 C 82.834932,696.4788 81.294922,697.46103 79.677222,698.30455 C 77.889352,699.46459 75.993382,700.00767 74.099502,700.6205 C 72.316802,700.98553 70.515372,700.97527 68.719792,701.02675 C 67.174872,701.03355 65.629942,701.0228 64.085072,701.01637 C 62.573472,701.01054 61.061912,701.01097 59.550352,701.00945 C 57.703262,701.00587 55.856132,701.00562 54.009042,701.00575 C 52.328042,701.00745 50.647092,701.00811 48.966132,701.0089 C 47.416082,701.01024 45.866032,701.00878 44.315982,701.00781 C 42.314292,701.00447 40.312602,701.00514 38.310912,701.00477 C 36.641402,701.29525 35.042522,700.77379 33.408072,700.49496 C 31.782472,700.04112 30.122592,700.04907 28.475082,699.95461 C 26.558432,699.90368 24.641352,699.91606 22.724492,699.91606 C 21.120092,699.92044 19.515742,699.9222 17.911382,699.9242 C 16.297322,699.6855 14.746802,700.09387 13.173992,700.39194 C 11.171492,701.2995 9.173152,702.23226 7.175362,703.16052 C 4.868332,704.47008 2.412322,704.83074 -0.032487976,705.16851 C -2.079868,705.36605 -4.132098,705.35069 -6.182658,705.36708 C -8.101858,705.35628 -10.021058,705.35142 -11.940248,705.3465 C -13.984498,705.34189 -16.028758,705.34171 -18.073008,705.3397 C -19.962228,705.34189 -21.851418,705.34237 -23.740598,705.34286 C -25.769458,705.34304 -27.798278,705.3408 -29.827098,705.3391 C -31.976268,705.42038 -34.125488,705.2986 -36.267408,705.2002 C -37.843568,704.72687 -39.317998,703.62128 -40.826458,702.77309 C -43.116328,702.07491 -45.470628,702.14071 -47.799078,702.07722 C -50.476788,702.04504 -53.154618,702.06447 -55.832418,702.07552 C -57.896588,702.08857 -59.960808,702.08626 -62.025028,702.08602 C -64.605068,702.08565 -67.185108,702.08383 -69.765108,702.08383 C -71.211038,702.36472 -72.675248,702.44085 -74.116518,702.76708 C -75.532058,705.21252 -77.731718,705.90719 -79.585718,707.03894 C -81.314708,707.06966 -82.996678,706.52342 -84.683908,706.06144 C -86.513828,705.58113 -88.371508,705.50695 -90.223348,705.37576 C -91.988918,705.31821 -93.755078,705.33357 -95.520988,705.33321 C -97.325428,705.33806 -99.129868,705.33995 -100.93436,705.34189 C -102.67339,705.34243 -104.41242,705.34365 -106.1515,705.34468 C -107.62202,705.61859 -109.01573,705.10131 -110.45009,704.83038 C -111.75224,704.60752 -112.25271,703.05684 -113.13365,702.01712 C -113.94922,700.91098 -114.37038,699.39739 -114.94373,698.05857 C -115.4905,696.4836 -115.72446,694.77769 -116.07224,693.11615 C -116.45618,690.92592 -115.99191,688.96352 -115.64815,686.86375 C -115.15955,684.83876 -114.40604,682.98873 -113.70865,681.10507 C -110.45649,677.79766 -111.91642,678.93712 -110.66375,677.65123 C -110.16293,676.71854 -109.64974,675.8196 -109.14757,674.91246 L -107.09746,673.57297 C -107.59705,674.51574 -108.03144,675.49998 -108.59741,676.40335 C -111.65529,679.46017 -111.25905,678.98532 -111.65635,679.80006 C -112.36272,681.65968 -113.11254,683.49569 -113.62281,685.49372 C -113.97881,687.54566 -114.46059,689.45185 -114.09068,691.60401 C -113.75198,693.24187 -113.52777,694.92265 -112.98672,696.47304 C -112.42113,697.79091 -112.00455,699.27907 -111.20076,700.36869 C -110.35403,701.33951 -109.86649,702.84922 -108.6075,702.99243 C -107.18539,703.23883 -105.79456,703.71902 -104.3401,703.46005 C -102.60213,703.46078 -100.86411,703.46217 -99.126138,703.46035 C -97.322078,703.45823 -95.518018,703.45647 -93.713918,703.4527 C -91.945418,703.45325 -90.176458,703.43455 -88.408348,703.50072 C -86.551848,703.64593 -84.689628,703.73572 -82.856108,704.2289 C -81.178118,704.67078 -79.504668,705.22661 -77.785428,705.1262 C -75.179828,703.1298 -78.993168,707.62913 -76.206898,703.91674 C -73.503278,701.70527 -71.160338,699.98764 -67.970578,700.21674 C -65.388718,700.21674 -62.806818,700.21541 -60.224948,700.21298 C -58.160778,700.20861 -56.096648,700.20436 -54.032468,700.20193 C -51.356838,700.19665 -48.681118,700.18706 -46.005528,700.21644 C -43.657918,700.28243 -41.281358,700.20952 -38.978568,700.96495 C -37.489898,701.82601 -36.023788,702.93676 -34.447828,703.34501 C -32.310738,703.43048 -30.168528,703.53466 -28.026258,703.46545 C -25.994988,703.46369 -23.963708,703.4615 -21.932468,703.46157 C -20.045278,703.46193 -18.158038,703.46223 -16.270848,703.46466 C -14.224858,703.46381 -12.178828,703.4629 -10.132838,703.4666 C -8.212878,703.47298 -6.292918,703.4799 -4.372958,703.48421 C -2.329898,703.46843 -0.28488798,703.48724 1.754532,703.27781 C 4.190822,702.91563 6.633002,702.52547 8.929322,701.20353 C 10.934532,700.27939 12.934692,699.32448 14.950242,698.44891 C 16.535482,698.18878 18.106682,697.82552 19.724092,698.03793 C 21.327092,698.03671 22.930092,698.03526 24.533082,698.0341 C 26.450502,698.0375 28.368172,698.02724 30.285332,698.08115 C 31.943442,698.18302 33.614052,698.18016 35.248372,698.65543 C 36.869262,698.91246 38.462762,699.39848 40.115312,699.12743 C 42.118952,699.12706 44.122592,699.12773 46.126232,699.12439 C 47.676962,699.12342 49.227692,699.12196 50.778462,699.1233 C 52.457472,699.12403 54.136512,699.12469 55.815522,699.12621 C 57.664852,699.12633 59.514152,699.12567 61.363482,699.12312 C 62.875122,699.12476 64.386812,699.12439 65.898452,699.1307 C 67.442192,699.13744 68.985962,699.14916 70.529702,699.13999 C 72.317052,699.08256 74.111112,699.09131 75.883462,698.69896 C 77.766332,698.05754 79.653482,697.48252 81.433712,696.32752 C 83.073172,695.52128 84.632802,694.5643 86.420372,694.79559 C 88.295352,694.7962 90.170422,694.80676 92.045232,694.75978 C 93.930172,694.65791 95.828392,694.676 97.688402,694.15551 C 99.198942,693.76868 100.69986,693.41015 102.23296,693.25262 C 103.74278,692.9075 105.24675,692.47205 106.78493,692.61866 C 108.2989,692.61866 109.81288,692.61866 111.32685,692.61866 C 112.84087,692.61866 114.35484,692.61866 115.86882,692.61866 C 117.38283,692.61866 118.89681,692.61866 120.41078,692.61866 C 121.92476,692.61866 123.43873,692.61866 124.95271,692.6186 C 126.46664,692.61854 127.98053,692.61854 129.49446,692.61836 C 131.00873,692.61842 132.52305,692.61775 134.03736,692.61957 C 135.55744,692.62352 137.07752,692.62455 138.59756,692.64215 C 140.11615,692.65982 141.63509,692.69576 143.1536,692.65551 C 145.6344,692.15535 145.80176,692.67026 144.69046,692.97853 C 144.53599,690.8025 144.7,688.40763 143.67455,686.26658 C 143.37691,683.87693 143.14711,681.43319 142.62099,679.121 C 141.63004,676.48543 140.62468,673.8552 139.59189,671.24707 C 138.15935,667.53316 136.66178,663.864 135.43446,659.99718 C 134.32058,656.85714 133.30975,653.64018 132.01952,650.63473 C 130.7214,647.04685 129.58743,643.23424 127.70986,640.17706 C 126.12577,638.02805 124.49004,635.94789 123.07378,633.56006 C 121.72043,631.24744 120.39383,628.93659 119.46969,626.19745 C 118.23079,623.04157 116.87799,619.98663 115.58814,616.87045 C 114.50724,614.1213 113.4856,611.32704 112.35468,608.6222 C 110.63027,605.29718 108.68386,602.25294 106.85695,599.03561 C 105.50555,596.67055 104.25313,594.15117 102.54983,592.27146 C 100.81114,590.54144 99.094662,588.78186 97.116882,587.63214 C 95.339782,586.78899 93.713342,585.74745 91.777272,586.13312 C 90.184022,586.09044 88.578652,586.14338 87.006812,585.6987 C 85.658122,584.73414 84.282052,584.30227 83.332602,582.34018 C 81.763562,579.92685 80.217792,577.50545 78.364432,575.5121 C 76.615522,573.48171 74.850382,571.47997 73.144962,569.37412 C 71.235312,566.69175 69.471692,563.83211 67.612642,561.07962 C 64.319452,558.08539 61.419482,556.48383 57.396522,557.5859 C 55.027502,557.99913 52.587442,558.97383 50.299142,557.72916 C 48.476892,555.88697 46.704632,553.93167 44.824732,552.19522 C 42.673312,550.53915 40.907232,549.17155 38.412062,550.29384 C 35.490812,551.06887 32.504742,551.69524 29.815462,553.61764 C 27.527972,555.41989 25.310422,557.56799 22.670352,558.08029 C 19.499032,558.621 16.365362,559.31172 13.455902,561.34921 C 10.434392,563.65163 9.631192,564.46218 6.084332,566.87496 C 2.766382,568.71218 3.582972,567.72036 0.58550202,570.84699 C -2.291998,574.17261 -5.268108,577.35326 -6.760458,582.3973 C -7.505658,586.10726 -7.398408,588.29785 -10.080068,590.19712 C -11.862718,589.93492 -13.819768,589.66812 -15.666008,589.43646 C -19.710088,591.16132 -23.195018,593.11115 -26.666428,596.81145 C -29.437908,598.70076 -31.395978,600.03982 -34.372588,597.94174 C -36.960598,597.34706 -39.461278,597.17466 -42.067308,597.94102 C -44.503588,597.99292 -46.759718,598.0583 -49.078918,596.56893 C -51.997668,595.5924 -54.954738,594.52628 -57.979128,595.05017 C -61.968438,596.36459 -58.793938,594.29517 -61.462658,596.41983 C -63.270498,598.1249 -65.114528,599.77217 -66.805278,601.72685 C -69.103498,603.8857 -71.303458,606.33405 -73.972048,607.54193 C -77.147688,609.78813 -78.961078,610.89044 -81.818148,613.99278 C -86.008428,618.88172 -89.783958,624.41918 -93.254938,630.35239 C -94.379038,632.48725 -95.460958,634.6719 -96.612228,636.7724 C -97.479948,638.49264 -98.383778,640.12631 -98.889548,642.1734 C -99.430388,644.13889 -100.11912,646.04841 -100.38606,648.16167 C -101.32313,649.92009 -102.09334,651.84552 -103.37794,653.24595 C -104.29754,655.46508 -105.26178,657.65161 -105.99732,660.01709 C -106.53026,661.97804 -107.24172,663.79759 -107.26521,665.98503 C -107.41142,668.10629 -107.60307,670.20558 -107.48713,672.35411 C -107.48471,673.71424 -107.48645,675.07437 -107.47687,676.43443 L -109.49717,677.90857 z "
         id="path1872"
         style="opacity:0.97000002;fill:black;fill-opacity:1;stroke:black;stroke-width:2.02916598;stroke-linejoin:round;stroke-miterlimit:4;stroke-dasharray:none;stroke-opacity:1" />
      <path
         id="path2104"
         d="M 72.010994,699.13287 L 38.266414,699.13287 L 11.270744,728.30084 L 31.517494,722.46725 L 4.5218342,789.24106 L 65.262084,739.96803 L 51.764244,739.96803 L 72.010994,699.13287 z "
         style="fill:black;fill-opacity:1;fill-rule:evenodd;stroke:black;stroke-width:2.50983453;stroke-linecap:butt;stroke-linejoin:miter;stroke-miterlimit:4;stroke-dasharray:none;stroke-opacity:1" />
      <path
         id="path2992"
         d="M -23.834118,700.99908 L -57.578698,700.99908 L -84.574368,730.16705 L -64.327618,724.33346 L -91.323278,791.10727 L -30.583028,741.83424 L -44.080868,741.83424 L -23.834118,700.99908 z "
         style="fill:black;fill-opacity:1;fill-rule:evenodd;stroke:black;stroke-width:2.50983453;stroke-linecap:butt;stroke-linejoin:miter;stroke-miterlimit:4;stroke-dasharray:none;stroke-opacity:1" />
    </g>
  </g>
</svg>

<svg xmlns="http://www.w3.org/2000/svg" viewBox="0 0 744.09 1052.36"><g transform="translate(266.68-123.24)" stroke="#000"><path d="m-109.5 677.91c.001-1.365.008-2.73.001-4.095-.105-2.161.074-4.281.209-6.418.025-2.204.727-4.065 1.241-6.06.741-2.372 1.702-4.575 2.614-6.811 1.186-1.475 2.035-3.331 2.994-5.04.322-2.09.966-4.02 1.495-5.998.526-2.039 1.411-3.721 2.259-5.476 1.174-2.086 2.255-4.28 3.385-6.418 3.494-5.943 7.279-11.513 11.467-16.452 3.583-3.856 7.582-6.761 11.586-9.586 4.03-2.343.796-.373 3.359-2.65 1.695-1.952 3.53-3.626 5.336-5.347 2.222-2.487 4.677-3.626 7.348-4.426 3.038-.454 6.01.637 8.934 1.639 2.318 1.493 4.55 1.371 6.979 1.259 2.627-.787 5.132-.553 7.733.094 2.96 2.11 4.868.65 7.59-1.301 3.257-3.549 7.118-5.688 11.05-7.306 1.849.443 3.859.522 5.599.674-2.838 3.829-.775-3.02-.462-4.46 1.47-5.105 4.437-8.352 7.322-11.733 2.805-3.171 5.987-5.309 9.297-7.096 2.02-1.134 3.845-2.893 7.33-5.527 2.935-2.01 6.088-2.673 9.277-3.193 2.609-.603 4.812-2.773 7.09-4.56 2.711-1.862 5.709-2.475 8.633-3.259 2.54-1.116 4.347.385 6.516 2.094 1.87 1.762 3.65 3.698 5.484 5.517 2.256 1.075 4.674.111 6.994-.283 4.075-1.088 6.994.636 10.308 3.693 1.874 2.752 3.636 5.63 5.559 8.313 1.715 2.075 3.47 4.081 5.208 6.115 1.859 2.01 3.418 4.44 4.999 6.861.943 1.928 2.271 2.289 3.607 3.193 1.565.397 3.158.341 4.74.374 1.959-.386 3.591.722 5.377 1.614 1.986 1.178 3.717 2.946 5.469 4.69 1.713 1.905 2.965 4.457 4.323 6.848 1.822 3.237 3.779 6.282 5.513 9.61 1.144 2.701 2.162 5.506 3.243 8.263 1.283 3.127 2.64 6.186 3.888 9.34.929 2.705 2.236 5.01 3.575 7.303 1.413 2.382 3.053 4.446 4.637 6.585 1.869 3.107 3.02 6.943 4.325 10.559 1.3 2.998 2.315 6.214 3.428 9.357 1.208 3.874 2.709 7.535 4.143 11.241 1.042 2.612 2.06 5.245 3.06 7.885.559 2.319.775 4.789 1.068 7.2 1 2.178.891 4.614 1.095 6.879-1.709 2.693-3.236 2.597-5.388 2.929-1.52.024-3.04-.008-4.561-.026-1.52-.017-3.04-.017-4.56-.021-1.514-.002-3.03-.0001-4.543-.0001-1.514 0-3.03 0-4.542 0-1.514 0-3.03 0-4.542 0-1.514 0-3.03 0-4.542 0-1.514 0-3.03 0-4.542 0-1.514 0-3.03 0-4.542 0-1.531-.138-3.03.323-4.532.672-1.535.134-3.03.504-4.539.912-1.866.49-3.767.463-5.655.551-1.879.045-3.758.038-5.637.039-1.774-.201-3.314.782-4.932 1.625-1.788 1.16-3.684 1.703-5.578 2.316-1.783.365-3.584.355-5.38.406-1.545.007-3.09-.004-4.635-.001-1.512-.006-3.02-.005-4.535-.007-1.847-.004-3.694-.004-5.541-.004-1.681.002-3.362.002-5.04.003-1.55.0001-3.1 0-4.65-.0001-2-.003-4-.003-6.01-.003-1.67.29-3.268-.231-4.903-.51-1.626-.454-3.285-.446-4.933-.54-1.917-.051-3.834-.039-5.751-.039-1.604.004-3.209.006-4.813.008-1.614-.239-3.165.17-4.737.468-2 .908-4 1.84-5.999 2.769-2.307 1.31-4.763 1.67-7.208 2.01-2.047.198-4.1.182-6.15.199-1.919-.011-3.838-.016-5.758-.021-2.044-.005-4.089-.005-6.133-.007-1.889.002-3.778.003-5.668.003-2.029 0-4.058-.002-6.087-.004-2.149.081-4.298-.041-6.44-.139-1.576-.473-3.051-1.579-4.559-2.427-2.29-.698-4.644-.632-6.973-.696-2.678-.032-5.356-.013-8.03-.002-2.064.013-4.128.011-6.193.001-2.58 0-5.16-.002-7.74-.002-1.446.281-2.91.357-4.351.683-1.416 2.445-3.615 3.14-5.469 4.272-1.729.031-3.411-.516-5.098-.978-1.83-.48-3.688-.554-5.539-.686-1.766-.058-3.532-.042-5.298-.043-1.804.005-3.609.007-5.413.009-1.739.0001-3.478.002-5.217.003-1.471.274-2.864-.243-4.299-.514-1.302-.223-1.803-1.774-2.684-2.813-.816-1.106-1.237-2.62-1.81-3.959-.547-1.575-.781-3.281-1.129-4.942-.384-2.19.08-4.153.424-6.252.489-2.025 1.242-3.875 1.939-5.759 3.252-3.307 1.792-2.168 3.045-3.454.501-.933 1.014-1.832 1.516-2.739l2.05-1.339c-.5.943-.934 1.927-1.5 2.83-3.058 3.057-2.662 2.582-3.059 3.397-.706 1.86-1.456 3.696-1.966 5.694-.356 2.052-.838 3.958-.468 6.11.339 1.638.563 3.319 1.104 4.869.566 1.318.982 2.806 1.786 3.896.847.971 1.334 2.481 2.593 2.624 1.422.246 2.813.727 4.267.468 1.738.0001 3.476.002 5.214 0 1.804-.002 3.608-.004 5.412-.008 1.769.0001 3.537-.018 5.306.048 1.856.145 3.719.235 5.552.728 1.678.442 3.351.998 5.071.897 2.606-1.996-1.208 2.503 1.579-1.209 2.704-2.211 5.05-3.929 8.236-3.7 2.582 0 5.164-.0001 7.746-.004 2.064-.004 4.128-.009 6.192-.011 2.676-.005 5.351-.015 8.03.015 2.348.066 4.724-.007 7.03.749 1.489.861 2.955 1.972 4.531 2.38 2.137.085 4.279.19 6.422.12 2.031-.002 4.063-.004 6.094-.004 1.887 0 3.774.0001 5.662.003 2.046-.0001 4.092-.002 6.138.002 1.92.006 3.84.013 5.76.018 2.043-.016 4.088.003 6.127-.206 2.436-.362 4.878-.752 7.175-2.074 2.01-.924 4.01-1.879 6.02-2.755 1.585-.26 3.156-.623 4.774-.411 1.603-.0001 3.206-.003 4.809-.004 1.917.003 3.835-.007 5.752.047 1.658.102 3.329.099 4.963.574 1.621.257 3.214.743 4.867.472 2 0 4.01 0 6.01-.003 1.551-.0001 3.101-.002 4.652-.0001 1.679.0001 3.358.0001 5.04.003 1.849 0 3.699-.0001 5.548-.003 1.512.002 3.02.0001 4.535.008 1.544.007 3.088.018 4.631.009 1.787-.057 3.581-.049 5.354-.441 1.883-.641 3.77-1.216 5.55-2.371 1.639-.806 3.199-1.763 4.987-1.532 1.875.0001 3.75.011 5.625-.036 1.885-.102 3.783-.084 5.643-.604 1.511-.387 3.01-.745 4.545-.903 1.51-.345 3.01-.781 4.552-.634 1.514 0 3.03 0 4.542 0 1.514 0 3.03 0 4.542 0 1.514 0 3.03 0 4.542 0 1.514 0 3.03 0 4.542 0 1.514 0 3.03 0 4.542 0 1.514 0 3.03-.0001 4.543.0001 1.52.004 3.04.005 4.56.023 1.519.018 3.038.054 4.556.013 2.481-.5 2.648.015 1.537.323-.154-2.176.001-4.571-1.016-6.712-.298-2.39-.527-4.833-1.054-7.146-.991-2.636-1.996-5.266-3.03-7.874-1.433-3.714-2.93-7.383-4.157-11.25-1.114-3.14-2.125-6.357-3.415-9.362-1.298-3.588-2.432-7.4-4.31-10.458-1.584-2.149-3.22-4.229-4.636-6.617-1.353-2.313-2.68-4.623-3.604-7.363-1.239-3.156-2.592-6.211-3.882-9.327-1.081-2.749-2.103-5.543-3.233-8.248-1.724-3.325-3.671-6.369-5.498-9.587-1.351-2.365-2.604-4.884-4.307-6.764-1.739-1.73-3.455-3.49-5.433-4.639-1.777-.843-3.404-1.885-5.34-1.499-1.593-.043-3.199.001-4.77-.434-1.349-.965-2.725-1.396-3.674-3.359-1.569-2.413-3.115-4.835-4.968-6.828-1.749-2.03-3.514-4.03-5.219-6.138-1.91-2.682-3.673-5.542-5.532-8.294-3.293-2.994-6.193-4.596-10.216-3.494-2.369.413-4.809 1.388-7.097.143-1.822-1.842-3.595-3.797-5.474-5.534-2.151-1.656-3.917-3.02-6.413-1.901-2.921.775-5.907 1.401-8.597 3.324-2.287 1.802-4.505 3.95-7.145 4.463-3.171.541-6.305 1.231-9.214 3.269-3.02 2.302-3.825 3.113-7.372 5.526-3.318 1.837-2.501.845-5.499 3.972-2.878 3.326-5.854 6.506-7.346 11.55-.745 3.71-.638 5.901-3.32 7.8-1.783-.262-3.74-.529-5.586-.761-4.044 1.725-7.529 3.675-11 7.375-2.771 1.889-4.73 3.228-7.706 1.13-2.588-.595-5.089-.767-7.695-.0001-2.436.052-4.692.117-7.01-1.372-2.919-.977-5.876-2.043-8.9-1.519-3.989 1.314-.815-.755-3.484 1.37-1.808 1.705-3.652 3.352-5.343 5.307-2.298 2.159-4.498 4.607-7.167 5.815-3.176 2.246-4.989 3.349-7.846 6.451-4.19 4.889-7.966 10.426-11.437 16.36-1.124 2.135-2.206 4.32-3.357 6.42-.868 1.72-1.772 3.354-2.277 5.401-.541 1.965-1.23 3.875-1.497 5.988-.937 1.758-1.707 3.684-2.992 5.084-.92 2.219-1.884 4.406-2.619 6.771-.533 1.961-1.244 3.78-1.268 5.968-.146 2.121-.338 4.221-.222 6.369.002 1.36.0001 2.72.001 4.08l-2.02 1.474z" opacity=".97" stroke-linejoin="round" stroke-width="2.029"/><g fill-rule="evenodd" stroke-width="2.51"><path d="m72.01 699.13h-33.745l-26.996 29.17 20.247-5.834-26.996 66.774 60.74-49.27h-13.498l20.247-40.835z"/><path d="m-23.834 701h-33.745l-26.996 29.17 20.247-5.834-26.996 66.774 60.74-49.27h-13.498l20.247-40.835z"/></g></g></svg>
